X: 12715
T: Father John Angus Rankin's
R: march
M: 
K: Amajor
M:2/4
|:A/B/|ce ed/<e/|fe eA/>B/|ce e/c/A/B/|cB BA/<B/|
ce ed/e/|fe eA/c/|d/e/f/d/ e/c/d/<B/|cA A:|
|:f/<g/|ae f/e/d/c/|fe ef/<g/|ae f/e/d/c/|
[1 cB Bf/<g/|ae f/e/d/c/|fe eA/c/|d/e/f/d/ e/c/d/<B/|cA A:|
[2 cB BA/B/|c/<A/c/d/ ec/e/|f/d/f/g/ a>e|d/e/f/d/ e/c/d/<B/|cA A||

